X: 39
P: No. XXXIX.
M: 6/8
L: 1/8
K: G
V: 1
|:\
(B/c/d/B/)G GBG | c2d efg | Tfed ded | TBAG G2D |\
d/c/ |\
.c'(a/b/c') .b(g/a/b) | afd dfd | (e/f/g)e (f/g/a)f | g3 g2 |]
d |\
efg gag | bc'b afd | fga aba | Tg>fe dBG |\
V: 2 clef=bass middle=d
|:\
g3 G3 | e3 c3 | d3 f3 | g3 G3 |\
g3 g3 | e2c d3 | d'3 d3 | g3 G2z :|
f |\
g3 G3 | B3 G3 | g3 d3 | c3 A2z |\
a3 g3 | f3 d3 | c3 d3 | gdB G2 |]
z |\
c3 e3 | g3 f3 | d3 f3 | a3 b3 |\

